X: 231
T:Paddy Whack
% Nottingham Music Database
S:EF
M:6/8
K:G
P:A
d|"G"GBd gfg|"C"edc "D7"BcA|"G"GBd "A7"efg|"D7"fdd def|
"G"gbg "D"afd|"C"cde "G"dBG|"Em"GAB "D7"cAd|"G"BGG G2:|
P:B
G/2A/2|"G"BGB "C"c2e|"G"dBG "D7"A2G|"G"GBd "A7"efg|"D7"fdd def|
"G"gbg "D"afd|"C"cde "G"dBG|"Em"GAB "D7"cAd|"G"BGG G2:|<end>
<start>
